COLOR/categories 16/16/gnome-joystick.svg

<svg height="16" width="16" xmlns="http://www.w3.org/2000/svg"><path d="m16 6.7483258c0-3.068552-.322256-3.643421-3.46608-3.6272941h-4.5338757-4.5339642c-3.14382361-.0161655-3.4660801.5587421-3.4660801 3.6272941v2.1243807c0 3.0677905.32222339 3.6272935 3.4660801 3.6272935h4.5339642 4.5338757c3.143857 0 3.46608-.559503 3.46608-3.6272935z" fill="#e3dfd5" stroke-width=".551724"/><g enable-background="new" transform="matrix(.55172415 0 0 .55172415 -177.37953 -73.844818)"><path d="m345.49981 146.00039a1.4998051 1.4998051 0 0 0 -1.49981 1.49981 1.4998051 1.4998051 0 0 0 1.49981 1.4998 1.4998051 1.4998051 0 0 0 1.49981-1.4998 1.4998051 1.4998051 0 0 0 -1.49981-1.49981z" fill="#0e8420"/><path d="m339.5002 146a1.4998088 1.4998088 0 0 0 -1.49981 1.4998 1.4998088 1.4998088 0 0 0 1.49981 1.4998 1.4998088 1.4998088 0 0 0 1.4998-1.4998 1.4998088 1.4998088 0 0 0 -1.4998-1.4998z" fill="#c7162b"/><path d="m342.49982 149.00038a1.4998096 1.4998096 0 0 0 -1.49982 1.49981 1.4998096 1.4998096 0 0 0 1.49982 1.49981 1.4998096 1.4998096 0 0 0 1.4998-1.49981 1.4998096 1.4998096 0 0 0 -1.4998-1.49981z" fill="#335280"/><path d="m342.49982 143.00038a1.4998088 1.4998088 0 0 0 -1.49982 1.49981 1.4998088 1.4998088 0 0 0 1.49982 1.49981 1.4998088 1.4998088 0 0 0 1.4998-1.49981 1.4998088 1.4998088 0 0 0 -1.4998-1.49981z" fill="#f99b11"/></g><path d="m3.5816828 5.4653189c0-.2327669.1805351-.4137986.4126621-.4137986h.8253241c.2321214 0 .4126676.1810317.4126676.4137986l.0004249 1.2413683h1.2375668c.2321214 0 .426218.1293627.426218.3621242v.8534455c0 .2327614-.194091.4396083-.426218.4396083h-1.2379917v1.2413738c0 .3103503-.1805462.413799-.4126676.413799h-.8253241c-.232127 0-.4126621-.1034487-.4126621-.413799v-1.2413738h-1.2379917c-.2321159 0-.4126621-.1810428-.4126621-.4137986v-.8275753c-.0000166-.2327558.1805462-.4137986.4126621-.4137986h1.2379917z" fill="#5d5d5d" stroke-width=".551724"/><g enable-background="new" fill="#aea795" stroke-width=".55172415"><circle cx="9.10344856207" cy="11.12070007068" opacity=".5" r=".55172415"/><circle cx="6.89655196208" cy="11.12070007068" opacity=".5" r=".55172415"/></g><g stroke-width=".551724"><path d="m3.4667969 3.1210938c-3.14382364-.0161656-3.4667969.5584011-3.4667969 3.6269531v.5c0-3.068552.32297326-3.6431187 3.4667969-3.6269531h4.5332031 4.533203c3.143824-.0161269 3.466797.5584011 3.466797 3.6269531v-.5c0-3.068552-.322973-3.64308-3.466797-3.6269531h-4.533203z" fill="#fff" opacity=".3"/><path d="m12.533203 12.499673c3.143824.016166 3.466797-.558401 3.466797-3.6269531v-.4999999c0 3.068552-.322973 3.643119-3.466797 3.626953h-4.5332031-4.533203c-3.14382403.016127-3.46679703-.558401-3.46679703-3.626953v.4999999c0 3.0685521.322973 3.6430801 3.46679703 3.6269531h4.533203z" opacity=".2"/></g></svg>

<?xml version="1.0" encoding="UTF-8" standalone="no"?>
<svg
   xmlns:dc="http://purl.org/dc/elements/1.1/"
   xmlns:cc="http://creativecommons.org/ns#"
   xmlns:rdf="http://www.w3.org/1999/02/22-rdf-syntax-ns#"
   xmlns:svg="http://www.w3.org/2000/svg"
   xmlns="http://www.w3.org/2000/svg"
   xmlns:sodipodi="http://sodipodi.sourceforge.net/DTD/sodipodi-0.dtd"
   xmlns:inkscape="http://www.inkscape.org/namespaces/inkscape"
   height="16"
   width="16"
   version="1.1"
   id="svg37"
   sodipodi:docname="gnome-joystick.svg"
   inkscape:version="0.92.4 (5da689c313, 2019-01-14)">
  <metadata
     id="metadata43">
    <rdf:RDF>
      <cc:Work
         rdf:about="">
        <dc:format>image/svg+xml</dc:format>
        <dc:type
           rdf:resource="http://purl.org/dc/dcmitype/StillImage" />
        <dc:title></dc:title>
      </cc:Work>
    </rdf:RDF>
  </metadata>
  <defs
     id="defs41" />
  <sodipodi:namedview
     pagecolor="#ffffff"
     bordercolor="#666666"
     borderopacity="1"
     objecttolerance="10"
     gridtolerance="10"
     guidetolerance="10"
     inkscape:pageopacity="0"
     inkscape:pageshadow="2"
     inkscape:window-width="1920"
     inkscape:window-height="1016"
     id="namedview39"
     showgrid="false"
     inkscape:zoom="52.4375"
     inkscape:cx="8"
     inkscape:cy="8"
     inkscape:window-x="0"
     inkscape:window-y="27"
     inkscape:window-maximized="1"
     inkscape:current-layer="svg37" />
  <linearGradient
     id="a"
     gradientTransform="rotate(90,241.50049,-77.5)"
     gradientUnits="userSpaceOnUse"
     x1="324"
     x2="348"
     y1="149"
     y2="149">
    <stop
       offset="0"
       stop-color="#fff"
       id="stop2" />
    <stop
       offset=".125"
       stop-color="#fff"
       stop-opacity=".098039"
       id="stop4" />
    <stop
       offset=".92500001"
       stop-color="#fff"
       stop-opacity=".098039"
       id="stop6" />
    <stop
       offset="1"
       stop-color="#fff"
       stop-opacity=".498039"
       id="stop8" />
  </linearGradient>
  <path
     d="M 16,6.7483258 C 16,3.6797738 15.677744,3.1049048 12.53392,3.1210317 H 8.0000443 3.4660801 C 0.32225649,3.1048662 0,3.6797738 0,6.7483258 V 8.8727065 C 0,11.940497 0.32222339,12.5 3.4660801,12.5 H 8.0000443 12.53392 C 15.677777,12.5 16,11.940497 16,8.8727065 Z"
     id="path13"
     inkscape:connector-curvature="0"
     style="fill:#e3dfd5;stroke-width:0.5517242" />
  <g
     transform="matrix(0.55172415,0,0,0.55172415,-177.37953,-73.844818)"
     id="g23"
     style="enable-background:new">
    <path
       d="M 345.49981,146.00039 A 1.4998051,1.4998051 0 0 0 344,147.5002 1.4998051,1.4998051 0 0 0 345.49981,149 a 1.4998051,1.4998051 0 0 0 1.49981,-1.4998 1.4998051,1.4998051 0 0 0 -1.49981,-1.49981 z"
       id="path15"
       inkscape:connector-curvature="0"
       style="fill:#0e8420" />
    <path
       d="m 339.5002,146 a 1.4998088,1.4998088 0 0 0 -1.49981,1.4998 1.4998088,1.4998088 0 0 0 1.49981,1.4998 A 1.4998088,1.4998088 0 0 0 341,147.4998 1.4998088,1.4998088 0 0 0 339.5002,146 Z"
       id="path17"
       inkscape:connector-curvature="0"
       style="fill:#c7162b" />
    <path
       d="M 342.49982,149.00038 A 1.4998096,1.4998096 0 0 0 341,150.50019 1.4998096,1.4998096 0 0 0 342.49982,152 a 1.4998096,1.4998096 0 0 0 1.4998,-1.49981 1.4998096,1.4998096 0 0 0 -1.4998,-1.49981 z"
       id="path19"
       inkscape:connector-curvature="0"
       style="fill:#335280" />
    <path
       d="M 342.49982,143.00038 A 1.4998088,1.4998088 0 0 0 341,144.50019 1.4998088,1.4998088 0 0 0 342.49982,146 a 1.4998088,1.4998088 0 0 0 1.4998,-1.49981 1.4998088,1.4998088 0 0 0 -1.4998,-1.49981 z"
       id="path21"
       inkscape:connector-curvature="0"
       style="fill:#f99b11" />
  </g>
  <path
     d="m 3.5816828,5.4653189 c 0,-0.2327669 0.1805351,-0.4137986 0.4126621,-0.4137986 H 4.819669 c 0.2321214,0 0.4126676,0.1810317 0.4126676,0.4137986 l 4.249e-4,1.2413683 h 1.2375668 c 0.2321214,0 0.426218,0.1293627 0.426218,0.3621242 v 0.8534455 c 0,0.2327614 -0.194091,0.4396083 -0.426218,0.4396083 H 5.2323366 V 9.603239 c 0,0.3103503 -0.1805462,0.413799 -0.4126676,0.413799 H 3.9943449 c -0.232127,0 -0.4126621,-0.1034487 -0.4126621,-0.413799 V 8.3618652 H 2.3436911 c -0.2321159,0 -0.4126621,-0.1810428 -0.4126621,-0.4137986 V 7.1204913 C 1.9310124,6.8877355 2.1115752,6.7066927 2.3436911,6.7066927 h 1.2379917 z"
     id="path25"
     inkscape:connector-curvature="0"
     style="fill:#5d5d5d;stroke-width:0.5517242" />
  <g
     id="g31"
     style="fill:#aea795;enable-background:new"
     transform="matrix(0.55172415,0,0,0.55172415,-0.82786212,-1.5686895)">
    <circle
       cx="18.0005"
       cy="22.999519"
       r="1"
       id="circle27"
       style="opacity:0.5" />
    <circle
       cx="14.0005"
       cy="22.999519"
       r="1"
       id="circle29"
       style="opacity:0.5" />
  </g>
  <path
     style="fill:#ffffff;stroke-width:0.5517242;fill-opacity:1;opacity:0.3"
     d="M 3.4667969 3.1210938 C 0.32297326 3.1049282 5.9211895e-16 3.6794949 0 6.7480469 L 0 7.2480469 C 5.9211895e-16 4.1794949 0.32297326 3.6049282 3.4667969 3.6210938 L 8 3.6210938 L 12.533203 3.6210938 C 15.677027 3.6049669 16 4.1794949 16 7.2480469 L 16 6.7480469 C 16 3.6794949 15.677027 3.1049669 12.533203 3.1210938 L 8 3.1210938 L 3.4667969 3.1210938 z "
     id="path850" />
  <path
     id="path855"
     d="M 12.533203,12.499673 C 15.677027,12.515839 16,11.941272 16,8.8727199 V 8.37272 c 0,3.068552 -0.322973,3.643119 -3.466797,3.626953 H 7.9999999 3.4667969 C 0.32297287,12.0158 -1.3104677e-7,11.441272 -1.3104677e-7,8.37272 V 8.8727199 C -1.3104677e-7,11.941272 0.32297287,12.5158 3.4667969,12.499673 h 4.533203 z"
     style="opacity:0.2;fill:#000000;fill-opacity:1;stroke-width:0.5517242"
     inkscape:connector-curvature="0" />
</svg>
